public/logos/kimberly-clark.svg

<svg width="1673" height="200" viewBox="0 0 1673 200" fill="none" xmlns="http://www.w3.org/2000/svg">
<mask id="mask0_32_46" style="mask-type:luminance" maskUnits="userSpaceOnUse" x="0" y="0" width="1673" height="200">
<path d="M1672.12 0H0V200H1672.12V0Z" fill="white"/>
</mask>
<g mask="url(#mask0_32_46)">
<path d="M274.01 75.1962C297.994 56.2277 312.009 31.9618 317.43 9.37439H282.828C277.631 36.0003 261.574 63.2557 238.5 79.4445H236.235V9.37439H200.056V153.36H236.235V98.8327L252.756 88.8326C269.723 105.441 279.895 132.486 283.979 153.36H325.356C319.248 122.959 299.572 93.0809 274.01 75.1962Z" fill="white"/>
<path d="M374.011 45.9629H338.724V153.34H374.011V45.9629Z" fill="white"/>
<path d="M374.64 0H337.996V28.3567H374.64V0Z" fill="white"/>
<path d="M539.948 44.9502C525.247 44.9502 510.545 50.2823 501.949 63.6915H499.908C494.246 51.3488 482.495 44.9502 465.529 44.9502C450.605 44.9502 436.831 50.2823 428.44 63.6915H426.416L420.978 46.8733H389.309L393.152 82.4502V153.378H428.44V93.744C428.44 76.6985 435.457 63.7089 450.827 63.7089C460.108 63.7089 468.462 68.3943 468.462 87.7824V153.378H503.751V93.744C503.751 77.3279 510.767 63.7089 526.138 63.7089C535.401 63.7089 543.773 68.3943 543.773 87.7824V153.378H579.042V82.66C579.042 58.167 564.563 44.9677 539.929 44.9677" fill="white"/>
<path d="M649.935 136.539C642.435 136.539 635.826 134.598 630.053 131.819V93.724C630.053 77.1155 637.293 63.689 652.663 63.689C668.033 63.689 675.05 76.4687 675.05 100.752C675.05 118.846 670.744 136.539 649.935 136.539ZM667.588 44.9476C652.886 44.9476 638.425 50.2798 630.277 63.689H630.053V0H594.766V146.993C598.608 148.235 602.618 149.336 606.738 150.314C620.363 153.532 635.214 155.263 649.285 155.263C685.446 155.263 711.471 141.417 711.471 99.0387C711.471 65.1574 696.547 44.9476 667.588 44.9476Z" fill="white"/>
<path d="M797.652 91.5937H757.408C757.408 70.7195 766.671 63.6915 779.126 63.6915C790.654 63.6915 798.116 69.8629 798.116 85.6321C798.116 87.9748 797.894 89.251 797.67 91.5937M781.595 44.9502C748.107 44.9502 720.969 59.216 720.969 99.2511C720.969 139.286 746.529 155.266 780.909 155.266C798.543 155.266 813.245 152.713 828.616 148.238V123.692L825.905 125.65C816.623 131.612 803.741 136.524 789.503 136.524C769.956 136.524 757.909 127.416 757.464 107.346H831.029L831.549 105.003C832.903 99.0413 833.349 92.8699 833.349 87.5378C833.349 62.4153 817.292 44.9502 781.576 44.9502" fill="white"/>
<path d="M881.464 68.1624H879.422L873.538 46.8686H842.186L845.954 82.4458V153.372H881.222V93.7395C881.222 82.0262 889.149 75.6274 905.448 75.6274C909.272 75.6274 916.957 76.3618 920.577 77.0086V44.9631C901.345 44.9631 888.24 53.4772 881.464 68.18" fill="white"/>
<path d="M973.182 135.683C966.852 135.683 964.829 132.064 964.829 126.311V0H929.541V129.073C929.541 148.252 942.423 153.987 959.167 153.987C965.719 153.987 972.737 153.13 979.512 151.854V134.546L977.934 135.035C976.357 135.455 974.76 135.664 973.182 135.664" fill="white"/>
<path d="M1025.51 153.428C1013.82 168.306 999.19 172.747 978.342 172.747V200.001C1009.55 200.001 1036.02 178.288 1052.52 153.358C1073.11 122.257 1085.75 80.7356 1090.07 46.8718H1054.58C1053 80.7356 1043.94 114.599 1034.9 136.33H1033.55C1024.51 114.599 1015.47 80.9628 1013.89 46.8718H976.803C979.067 79.6691 995.329 127.187 1013.78 153.585" fill="white"/>
<path d="M1098.23 101.379H1157.17L1160.02 79.0718H1102.31L1098.23 101.379Z" fill="white"/>
<path d="M1213.89 81.3625C1213.89 45.1561 1228.15 26.1874 1254.6 26.1874C1267.48 26.1874 1282.87 31.8344 1292.37 40.1385V14.9113C1280.6 10.0161 1265.48 7.67346 1251 7.67346C1201.67 7.67346 1176.13 34.2994 1176.13 81.3625C1176.13 128.426 1203.73 155.262 1250.33 155.262C1264.57 155.262 1280.4 152.499 1293.28 146.31V120.96C1282.89 130.331 1267.5 136.52 1254.62 136.52C1229.52 136.52 1213.91 117.132 1213.91 81.3449" fill="white"/>
<path d="M1628.65 95.4198C1655.1 82.8499 1665.98 62.6225 1668.89 46.8533H1631.58C1628.87 66.4512 1617.57 82.6401 1603.32 90.7345V0H1568.24V153.356H1603.32V107.57L1611.24 103.741C1624.56 114.825 1632.49 133.776 1634.97 153.375H1672.07C1669.36 129.948 1655.34 105.665 1628.65 95.4372" fill="white"/>
<path d="M1520.27 68.1624H1518.22L1512.34 46.8686H1480.99L1484.75 82.4458V153.372H1520.03V93.7395C1520.03 82.0262 1527.95 75.6274 1544.23 75.6274C1548.05 75.6274 1555.74 76.3618 1559.36 77.0086V44.9631C1540.13 44.9631 1527.02 53.4772 1520.25 68.18" fill="white"/>
<path d="M1433.18 108.202C1433.18 123.744 1427.08 136.524 1411.91 136.524C1400.15 136.524 1396.1 127.993 1396.1 119.059C1396.1 106.926 1402.43 102.013 1413.96 102.013H1433.18V108.202ZM1468.47 81.3664C1468.47 57.0831 1451.26 44.9502 1415.55 44.9502C1398.81 44.9502 1384.55 47.2929 1368.95 51.1216V73.0971C1378.91 68.8314 1394.05 63.674 1407.4 63.674C1423 63.674 1433.18 69.0062 1433.18 81.9958V87.5378H1406.71C1386.13 87.5378 1360.81 93.0797 1360.81 121.611C1360.81 138.867 1370.76 155.266 1396.53 155.266C1411.67 155.266 1424.79 149.723 1432.94 136.733H1434.96L1440.63 153.342H1472.24L1468.45 117.765V81.3488L1468.47 81.3664Z" fill="white"/>
<path d="M1349.5 135.683C1343.18 135.683 1341.16 132.064 1341.16 126.311V0H1305.87V129.073C1305.87 148.252 1318.75 153.987 1335.49 153.987C1342.05 153.987 1349.07 153.13 1355.83 151.854V134.546L1354.26 135.035C1352.68 135.455 1351.09 135.664 1349.5 135.664" fill="white"/>
<path d="M137.144 116.576V89.0589C131.686 89.0589 122.609 89.0589 120.363 89.024C118.432 88.989 114.942 89.3037 112.269 86.8386C110.487 85.1953 110.209 82.6428 111.564 79.5484C111.917 78.7442 112.585 77.6254 113.494 76.2616C114.72 74.4261 133.412 51.2792 137.088 46.6812H101.54C99.8878 48.4294 91.2931 60.2127 86.5224 68.2547C86.2438 68.7267 85.9097 69.2512 85.6499 69.7058V23.2021H51.4938V69.7058C51.234 69.2512 50.9184 68.7267 50.6214 68.2547C45.8322 60.2302 37.2561 48.4294 35.6038 46.6812H0.0556891C3.73117 51.2792 22.4242 74.4261 23.6493 76.2616C24.5589 77.6254 25.2271 78.7442 25.5798 79.5484C26.9164 82.6428 26.6565 85.1777 24.8745 86.8386C22.2013 89.3037 18.7115 89.0064 16.781 89.024C14.5349 89.0589 5.45753 89.0589 0 89.0589V116.576H28.8656C40.7459 116.664 47.7627 108.902 50.1574 105.318C50.5658 104.723 50.8627 104.216 51.0855 103.832C51.3082 103.447 51.4382 103.202 51.5124 103.115V131.927H85.6684V103.115C85.6684 103.115 85.8726 103.447 86.0955 103.832C86.3181 104.216 86.6152 104.723 87.0235 105.318C89.4181 108.902 96.4349 116.681 108.315 116.576" fill="white"/>
</g>
</svg>

<svg xmlns="http://www.w3.org/2000/svg" width="1673" height="200" fill="none"><mask id="a" width="1673" height="200" x="0" y="0" maskUnits="userSpaceOnUse" style="mask-type:luminance"><path fill="#fff" d="M1672.12 0H0v200h1672.12z"/></mask><g fill="#fff" mask="url(#a)"><path d="M274.01 75.196c23.984-18.968 37.999-43.234 43.42-65.822h-34.602C277.631 36 261.574 63.256 238.5 79.444h-2.265V9.375h-36.179V153.36h36.179V98.833l16.521-10c16.967 16.608 27.139 43.653 31.223 64.527h41.377c-6.108-30.401-25.784-60.28-51.346-78.164M374.011 45.963h-35.287V153.34h35.287zM374.64 0h-36.644v28.357h36.644zM539.948 44.95c-14.701 0-29.403 5.332-37.999 18.741h-2.041c-5.662-12.342-17.413-18.74-34.379-18.74-14.924 0-28.698 5.331-37.089 18.74h-2.024l-5.438-16.818h-31.669l3.843 35.577v70.928h35.288V93.744c0-17.046 7.017-30.035 22.387-30.035 9.281 0 17.635 4.685 17.635 24.073v65.596h35.289V93.744c0-16.416 7.016-30.035 22.387-30.035 9.263 0 17.635 4.685 17.635 24.073v65.596h35.269V82.66c0-24.493-14.479-37.692-39.113-37.692M649.935 136.539c-7.5 0-14.109-1.941-19.882-4.72V93.724c0-16.609 7.24-30.035 22.61-30.035s22.387 12.78 22.387 37.063c0 18.094-4.306 35.787-25.115 35.787m17.653-91.591c-14.702 0-29.163 5.332-37.311 18.741h-.224V0h-35.287v146.993c3.842 1.242 7.852 2.343 11.972 3.321 13.625 3.218 28.476 4.949 42.547 4.949 36.161 0 62.186-13.846 62.186-56.224 0-33.882-14.924-54.091-43.883-54.091M797.652 91.594h-40.244c0-20.874 9.263-27.902 21.718-27.902 11.528 0 18.99 6.17 18.99 21.94 0 2.343-.222 3.619-.446 5.962M781.595 44.95c-33.488 0-60.626 14.266-60.626 54.301s25.56 56.015 59.94 56.015c17.634 0 32.336-2.553 47.707-7.028v-24.546l-2.711 1.958c-9.282 5.962-22.164 10.874-36.402 10.874-19.547 0-31.594-9.108-32.039-29.178h73.565l.52-2.343c1.354-5.962 1.8-12.133 1.8-17.465 0-25.123-16.057-42.588-51.773-42.588M881.464 68.162h-2.042l-5.884-21.293h-31.352l3.768 35.577v70.926h35.268V93.739c0-11.713 7.927-18.112 24.226-18.112 3.824 0 11.509.735 15.129 1.382V44.963c-19.232 0-32.337 8.514-39.113 23.217M973.182 135.683c-6.33 0-8.353-3.619-8.353-9.372V0h-35.288v129.073c0 19.179 12.882 24.914 29.626 24.914 6.552 0 13.57-.857 20.345-2.133v-17.308l-1.578.489c-1.577.42-3.174.629-4.752.629"/><path d="M1025.51 153.428c-11.69 14.878-26.32 19.319-47.168 19.319v27.254c31.208 0 57.678-21.713 74.178-46.643 20.59-31.101 33.23-72.622 37.55-106.486h-35.49c-1.58 33.864-10.64 67.727-19.68 89.458h-1.35c-9.04-21.731-18.08-55.367-19.66-89.458h-37.087c2.264 32.797 18.526 80.315 36.977 106.713M1098.23 101.379h58.94l2.85-22.307h-57.71zM1213.89 81.363c0-36.207 14.26-55.176 40.71-55.176 12.88 0 28.27 5.647 37.77 13.952V14.91c-11.77-4.895-26.89-7.238-41.37-7.238-49.33 0-74.87 26.626-74.87 73.69s27.6 73.899 74.2 73.899c14.24 0 30.07-2.763 42.95-8.952v-25.35c-10.39 9.371-25.78 15.56-38.66 15.56-25.1 0-40.71-19.388-40.71-55.175M1628.65 95.42c26.45-12.57 37.33-32.797 40.24-48.567h-37.31c-2.71 19.598-14.01 35.787-28.26 43.881V0h-35.08v153.356h35.08V107.57l7.92-3.829c13.32 11.084 21.25 30.035 23.73 49.634h37.1c-2.71-23.427-16.73-47.71-43.42-57.938M1520.27 68.162h-2.05l-5.88-21.293h-31.35l3.76 35.577v70.926h35.28V93.739c0-11.713 7.92-18.112 24.2-18.112 3.82 0 11.51.735 15.13 1.382V44.963c-19.23 0-32.34 8.514-39.11 23.217M1433.18 108.202c0 15.542-6.1 28.322-21.27 28.322-11.76 0-15.81-8.531-15.81-17.465 0-12.133 6.33-17.046 17.86-17.046h19.22zm35.29-26.836c0-24.283-17.21-36.416-52.92-36.416-16.74 0-31 2.343-46.6 6.172v21.975c9.96-4.266 25.1-9.423 38.45-9.423 15.6 0 25.78 5.332 25.78 18.322v5.542h-26.47c-20.58 0-45.9 5.542-45.9 34.073 0 17.256 9.95 33.655 35.72 33.655 15.14 0 28.26-5.543 36.41-18.533h2.02l5.67 16.609h31.61l-3.79-35.577V81.349zM1349.5 135.683c-6.32 0-8.34-3.619-8.34-9.372V0h-35.29v129.073c0 19.179 12.88 24.914 29.62 24.914 6.56 0 13.58-.857 20.34-2.133v-17.308l-1.57.489c-1.58.42-3.17.629-4.76.629M137.144 116.576V89.059c-5.458 0-14.535 0-16.781-.035-1.931-.035-5.421.28-8.094-2.185-1.782-1.644-2.06-4.196-.705-7.29.353-.805 1.021-1.924 1.93-3.287 1.226-1.836 19.918-24.983 23.594-29.58H101.54c-1.652 1.747-10.247 13.53-15.018 21.573-.278.472-.612.996-.872 1.45V23.203H51.494v46.504c-.26-.455-.576-.98-.873-1.451-4.789-8.025-13.365-19.826-15.017-21.574H.056c3.675 4.598 22.368 27.745 23.593 29.58.91 1.364 1.578 2.483 1.93 3.287 1.337 3.095 1.078 5.63-.704 7.29-2.674 2.466-6.163 2.168-8.094 2.186-2.246.035-11.323.035-16.781.035v27.517h28.866c11.88.088 18.897-7.674 21.291-11.258.409-.595.706-1.102.929-1.486.222-.385.352-.63.426-.717v28.812h34.156v-28.812s.205.332.427.717c.223.384.52.891.928 1.486 2.395 3.584 9.412 11.363 21.292 11.258"/></g></svg>
